Simply-Orange-Circles/scalable/mimes/text-x-script.svg

<?xml version="1.0" encoding="UTF-8" standalone="no"?>
<svg
   xmlns:dc="http://purl.org/dc/elements/1.1/"
   xmlns:cc="http://creativecommons.org/ns#"
   xmlns:rdf="http://www.w3.org/1999/02/22-rdf-syntax-ns#"
   xmlns:svg="http://www.w3.org/2000/svg"
   xmlns="http://www.w3.org/2000/svg"
   xmlns:sodipodi="http://sodipodi.sourceforge.net/DTD/sodipodi-0.dtd"
   xmlns:inkscape="http://www.inkscape.org/namespaces/inkscape"
   width="48"
   height="48"
   version="1.1"
   id="svg35"
   sodipodi:docname="text-x-script.svg"
   inkscape:version="0.92.4 (5da689c313, 2019-01-14)">
  <metadata
     id="metadata39">
    <rdf:RDF>
      <cc:Work
         rdf:about="">
        <dc:format>image/svg+xml</dc:format>
        <dc:type
           rdf:resource="http://purl.org/dc/dcmitype/StillImage" />
        <dc:title></dc:title>
      </cc:Work>
    </rdf:RDF>
  </metadata>
  <sodipodi:namedview
     pagecolor="#ffffff"
     bordercolor="#666666"
     borderopacity="1"
     objecttolerance="10"
     gridtolerance="10"
     guidetolerance="10"
     inkscape:pageopacity="0"
     inkscape:pageshadow="2"
     inkscape:window-width="1087"
     inkscape:window-height="480"
     id="namedview37"
     showgrid="false"
     inkscape:zoom="4.9166667"
     inkscape:cx="2.1355932"
     inkscape:cy="24"
     inkscape:window-x="0"
     inkscape:window-y="25"
     inkscape:window-maximized="0"
     inkscape:current-layer="svg35" />
  <defs
     id="defs31">
    <linearGradient
       id="a">
      <stop
         offset="0"
         stop-color="#dc85e9"
         id="stop2" />
      <stop
         offset="1"
         stop-color="#f2cbf8"
         id="stop4" />
    </linearGradient>
    <linearGradient
       id="b">
      <stop
         offset="0"
         stop-color="#dc85e9"
         id="stop7" />
      <stop
         offset="1"
         stop-color="#f2cbf8"
         id="stop9" />
    </linearGradient>
    <linearGradient
       id="c">
      <stop
         offset="0"
         stop-color="#fff"
         stop-opacity=".588"
         id="stop12" />
      <stop
         offset="1"
         stop-color="#fff"
         stop-opacity=".863"
         id="stop14" />
    </linearGradient>
    <linearGradient
       id="d">
      <stop
         offset="0"
         stop-color="#b3b3b3"
         id="stop17" />
      <stop
         offset="1"
         stop-color="#e6e6e6"
         id="stop19" />
    </linearGradient>
    <linearGradient
       id="e">
      <stop
         offset="0"
         stop-color="#e694bb"
         id="stop22" />
      <stop
         offset=".262"
         stop-color="#d3819a"
         id="stop24" />
      <stop
         offset=".705"
         stop-color="#b25a64"
         id="stop26" />
      <stop
         offset="1"
         stop-color="#98313d"
         id="stop28" />
    </linearGradient>
  </defs>
  <path
     style="color:#000000;font-weight:400;line-height:normal;font-family:'Andale Mono';text-indent:0;text-align:start;text-decoration:none;text-decoration-line:none;text-transform:none;overflow:visible;fill:#ff7f2a;marker:none"
     d="m 29.705,-0.084 c -2.047,0.008 -4.121,0.088 -4.517,0.098 H 7 a 2.938,2.938 0 0 0 -0.563,0 C 5.063,0.276 3.975,1.612 4,3.012 V 45 c 0,1.57 1.43,3 3,3 h 34 c 1.57,0 3,-1.43 3,-3 V 18.818 C 44.018,18.026 44.215,8.891 43.664,8.322 l -9.61,-8.074 c -0.284,-0.275 -2.302,-0.34 -4.349,-0.332 z m 1.49,3.094 0.133,7.504 c 0.012,0.681 0.638,1.29 1.317,1.279 l 7.771,-0.137 c 0.133,0.018 0.268,0.017 0.4,-0.006 L 40.898,14.68 41,18.77 V 44.997 H 7 V 3.021 H 25.672 Z M 10.242,6.908 v 2.037 h 6.207 V 6.908 Z m 8,0 v 2.037 h 6.207 V 6.908 Z m -6,4 v 2.037 H 28.34 v -2.037 z m -2,4 v 2.037 H 24.11 v -2.037 z m 16,0 v 2.037 h 10.28 v -2.037 z m -16,4 v 2.037 h 6.4 v -2.037 z m 8,0 v 2.037 h 11.83 v -2.037 z m 14,0 v 2.037 h 4.17 v -2.037 z m -20,4 v 2.037 h 21.72 v -2.037 z m 0,4 v 1.94 H 29.6 v -1.94 z m 20,0 v 1.94 h 3.977 v -1.94 z m -22.219,4 v 1.94 H 26.22 v -1.94 z m 19.602,0 v 1.94 h 6.594 v -1.94 z"
     font-weight="400"
     overflow="visible"
     id="path33"
     inkscape:connector-curvature="0" />
</svg>

<svg xmlns="http://www.w3.org/2000/svg" width="48" height="48"><path style="line-height:normal;text-indent:0;text-align:start;text-decoration-line:none;text-transform:none;marker:none" d="M29.7-.08c-2.04 0-4.12.08-4.51.1H7a2.94 2.94 0 0 0-.56 0 3.1 3.1 0 0 0-2.44 3V45c0 1.57 1.43 3 3 3h34c1.57 0 3-1.43 3-3V18.82c.02-.8.21-9.93-.34-10.5L34.06.25c-.29-.28-2.3-.34-4.36-.33zM31.2 3l.13 7.5c.01.68.64 1.3 1.31 1.28l7.78-.13c.13.01.26.01.4-.01l.08 3.03.1 4.09V45H7V3.02h18.67l5.52-.01zm-20.96 3.9v2.04h6.2V6.9h-6.2zm8 0v2.04h6.2V6.9h-6.2zm-6 4v2.04h16.1V10.9h-16.1zm-2 4v2.04h13.87V14.9H10.24zm16 0v2.04h10.28V14.9H26.24zm-16 4v2.04h6.4V18.9h-6.4zm8 0v2.04h11.83V18.9H18.24zm14 0v2.04h4.17V18.9h-4.17zm-20 4v2.04h21.72V22.9H12.24zm0 4v1.94H29.6V26.9H12.24zm20 0v1.94h3.98V26.9h-3.98zm-22.22 4v1.94h16.2V30.9h-16.2zm19.6 0v1.94h6.6V30.9h-6.6z" color="#000" font-weight="400" font-family="Andale Mono" overflow="visible" fill="#ff7f2a"/></svg>
